!! 00000] TT[WS
!!!OTL: Renzai wai qian xinzai jia
!!!ARE: Asia, China, Shanxi Hequ
!! Ethnic Group: Han
!! WII, 30 (2)
!!!SCT: J0440
!!!YEM: Copyright 1995, estate of Helmut Schaffrath.
**kern
*ICvox
*Ivox
*M2/4
*k[]
*C:
{8.ee
16dd
8cc
16a
16a
=1
8cc
4dd
8ee
=2
8.dd
16cc
8a
8g
=3
16a
16g
8e
4d}
=4
{8.ee
16dd
8cc
16a
16a
=5
8cc
4dd
8ee
=6
8.dd
16cc
8a
8g
=7
16a
16g
8e
4g}
==
!!!AGN: Shange, Shanqu. Qingge
!!!ONB: ESAC (Essen Associative Code) Database: CHINA
!!!AMT: simple duple
!!!AIN: vox
!!!EED: Helmut Schaffrath
!!!EEV: 1.0
*-
